X:118
T:Hornpfeifen
S:H O
R:Hornpipe
O:Denmark
M:2/4
L:1/8
K:G
Bd dc/d/ | ec ce | dB cA | BG G2 | \
Bd dc/d/ | ec ce | dB cA | A2 G2 :|*
|:\
fa ag/a/ | bg gb | af ge | e2d2 |\
Bd df | ec ce | dB cA | A2G2 :|**
